X: 313
M: 3/4
L: 1/8
K: D
|:\
d2fdec | d2e2f2 | A2BcdB | A2G2F2 |\
|:\
ecAceg | fdecd2 | A>gf2Te2 | d6 :|

